X: 14204
T: Fuchsia, The
R: jig
M: 6/8
K: Fmajor
|:F3 FGA|c3cAG|Ace dcd|fag f2 g|
age fag|gfd cAG|Add aec|Add d2:|
|:add f2 d|cfd c3|d3 fdc|gag gfg|
afd dcA|GFD DCA,|A,DF dAG|FDD D3:|
|:FDD D2E|F3 FAF|GEC A,2 E|F3 dfd|
cfd cAG|Add dcA|F3 cAF|DGd BAG|FDD D3:|

